packages/icons/svgs/24/nps-24.svg

<svg width="24" height="24" viewBox="0 0 24 24" fill="none" xmlns="http://www.w3.org/2000/svg">
<path d="M2.52944 16.8168V10.3827H2.59542L6.20011 16.8168H7.54362V7.19732H6.00818V13.5962H5.9422L2.35551 7.19732H1V16.8168H2.52944Z" fill="black"/>
<path d="M12.8757 7.19732H9.60087V16.8168H11.2203V13.5891H12.8637C14.633 13.5891 15.6407 12.2149 15.6407 10.4038C15.6407 8.60677 14.645 7.19732 12.8757 7.19732ZM13.9913 10.4038C13.9913 11.475 13.4575 12.0951 12.5638 12.0951H11.2143V8.71247H12.5638C13.4575 8.71247 13.9913 9.32558 13.9913 10.4038Z" fill="black"/>
<path d="M16.5943 14.1952C16.6663 15.7174 17.6739 17 19.7552 17C21.8304 17 23 15.7738 23 13.9838C23 12.37 22.1243 11.623 20.7988 11.2706L19.5273 10.9253C18.8075 10.7421 18.4057 10.3615 18.4057 9.78365C18.4057 9.03665 18.9395 8.49401 19.8332 8.49401C20.7028 8.49401 21.2366 9.02255 21.3386 9.71318H22.874C22.7961 8.23326 21.7165 7 19.8451 7C18.0398 7 16.7863 8.1487 16.7863 9.9105C16.7863 11.3693 17.59 12.229 18.8615 12.5673L20.127 12.9126C20.9787 13.1452 21.3866 13.4905 21.3866 14.16C21.3866 14.9493 20.8528 15.4919 19.8451 15.4919C18.8795 15.4919 18.2677 14.9422 18.1598 14.1952H16.5943Z" fill="black"/>
</svg>

<svg width="24" height="24" viewBox="0 0 24 24" xmlns="http://www.w3.org/2000/svg">
    <path d="M2.53 16.817v-6.434h.065L6.2 16.817h1.344v-9.62H6.008v6.4h-.066l-3.586-6.4H1v9.62h1.53Zm10.346-9.62H9.6v9.62h1.62v-3.228h1.643c1.769 0 2.777-1.374 2.777-3.185 0-1.797-.996-3.207-2.765-3.207Zm1.115 3.207c0 1.071-.534 1.691-1.427 1.691h-1.35V8.712h1.35c.893 0 1.427.614 1.427 1.692Zm2.603 3.791c.072 1.522 1.08 2.805 3.161 2.805C21.83 17 23 15.774 23 13.984c0-1.614-.876-2.361-2.201-2.713l-1.272-.346c-.72-.183-1.121-.564-1.121-1.141 0-.747.534-1.29 1.427-1.29.87 0 1.404.529 1.506 1.22h1.535C22.796 8.233 21.717 7 19.845 7c-1.805 0-3.059 1.149-3.059 2.91 0 1.46.804 2.319 2.075 2.657l1.266.346c.852.232 1.26.578 1.26 1.247 0 .79-.534 1.332-1.542 1.332-.965 0-1.577-.55-1.685-1.297h-1.566Z"/>
</svg>
